X:707
T:Mrs. Hamilton of Wishaw
R:Reel
C:William Marshall
B:The Athole Collection
M:C|
L:1/8
K:B_
f|dB B/B/B ~B2 FB|cded cCCc|d>B B/B/B ~B2 FB|ABcA BB,B,:|
d|B/B/B fd bdfd|B/B/B fd eccd|B/B/B fd bdfd|ABcA BB,B,d|
B/B/B fd bdfd|B/B/B fd eccf|gefd ecdA|BGFE DB,B,||

